**kern	**silbe	**kern	**silbe	**harmony	**phrase	**leadinstrument	**rhyme	**timestamp	**harte
*ICvox	*	*ICvox	*	*M4/4	*	*	*	*	*M4/4
*VRlead	*	*VRbacking*VRharmonize	*	*	*	*	*	*	*
*Hstimme	*	*Nstimme	*	*	*	*	*	*	*
*G:	*	*G:	*	*G:	*	*	*	*	*G:
*M4/4	*	*M4/4	*	*	*	*	*	*	*
*clefF4	*	*clefF4	*	*	*	*	*	*	*
r;	.	r;	.	1r;	.	r	.	0	N.C.
=1	=1	=1	=1	=1	=1	=1	=1	=1	=1
*>Letter>A	*>Letter>A	*>Letter>A	*>Letter>A	*>Letter>A	*>Letter>A	*>Letter>A	*>Letter>A	*>Letter>A	*>Letter>A
*>Label>Intro	*>Label>Intro	*>Label>Intro	*>Label>Intro	*>Label>Intro	*>Label>Intro	*>Label>Intro	*>Label>Intro	*>Label>Intro	*>Label>Intro
1r	.	1r	.	1GM	newline	r	.	0.325	G:maj
=2	=2	=2	=2	=2	=2	=2	=2	=2	=2
1r	.	1r	.	1Emm	.	r	.	2.783	E:min9
=3	=3	=3	=3	=3	=3	=3	=3	=3	=3
1r	.	1r	.	1CMM	.	r	.	5.241	C:maj9
=4	=4	=4	=4	=4	=4	=4	=4	=4	=4
1r	.	1r	.	1Bmm	.	r	.	7.699	B:min7
=5	=5	=5	=5	=5	=5	=5	=5	=5	=5
1r	.	4r	.	1GM	newline	r	.	10.157	G:maj
.	.	4B	Ha	.	.	.	.	.	.
.	.	8c	ha	.	.	.	.	.	.
.	.	8d	ha	.	.	.	.	.	.
.	.	8r	.	.	.	.	.	.	.
.	.	8eq	_	.	.	.	.	.	.
.	.	[8f#	ha	.	.	.	.	.	.
=6	=6	=6	=6	=6	=6	=6	=6	=6	=6
1r	.	4.f#]	_	1Emm	.	r	.	12.623	E:min9
.	.	8d	ha	.	.	.	.	.	.
.	.	2r	.	.	.	.	.	.	.
=7	=7	=7	=7	=7	=7	=7	=7	=7	=7
1r	.	1r	.	1CMM	.	r	.	15.088	C:maj9
=8	=8	=8	=8	=8	=8	=8	=8	=8	=8
1r	.	1r	.	1Bmm	.	r	.	17.554	B:min7
=9	=9	=9	=9	=9	=9	=9	=9	=9	=9
1r	.	4r	.	1GM	newline	r	.	20.019	G:maj
.	.	4B	Ha	.	.	.	.	.	.
.	.	8c	ha	.	.	.	.	.	.
.	.	8d	ha	.	.	.	.	.	.
.	.	8r	.	.	.	.	.	.	.
.	.	8eq	_	.	.	.	.	.	.
.	.	[8f#	ha	.	.	.	.	.	.
=10	=10	=10	=10	=10	=10	=10	=10	=10	=10
1r	.	4.f#]	_	1Emm	.	r	.	22.485	E:min9
.	.	8d	ha	.	.	.	.	.	.
.	.	2r	.	.	.	.	.	.	.
=11	=11	=11	=11	=11	=11	=11	=11	=11	=11
1r	.	1r	.	1CMM	.	r	.	24.951	C:maj9
=12	=12	=12	=12	=12	=12	=12	=12	=12	=12
1r	.	1r	.	1Bmm	.	r	.	27.416	B:min7
=13	=13	=13	=13	=13	=13	=13	=13	=13	=13
1r	.	1r	.	1Am	newline	r	.	29.882	A:min
=14	=14	=14	=14	=14	=14	=14	=14	=14	=14
1r	.	1r	.	1FM	.	r	.	32.46	F:maj6(9)
=15	=15	=15	=15	=15	=15	=15	=15	=15	=15
1r	.	1r	.	1N	.	r	.	35.038	N.C.
=16	=16	=16	=16	=16	=16	=16	=16	=16	=16
*>Letter>B	*>Letter>B	*>Letter>B	*>Letter>B	*>Letter>B	*>Letter>B	*>Letter>B	*>Letter>B	*>Letter>B	*>Letter>B
*>Label>Verse	*>Label>Verse	*>Label>Verse	*>Label>Verse	*>Label>Verse	*>Label>Verse	*>Label>Verse	*>Label>Verse	*>Label>Verse	*>Label>Verse
4r	.	1r	.	1GM	newline	voice	.	37.616	G:maj
8B	So	.	.	.	.	.	.	.	.
8A#q	_	.	.	.	.	.	.	.	.
[8B	true	.	.	.	.	.	.	.	.
4B_	_	.	.	.	.	.	.	.	.
16B]	_	.	.	.	.	.	.	.	.
8.r	.	.	.	.	.	.	.	.	.
=17	=17	=17	=17	=17	=17	=17	=17	=17	=17
16B	fun-	1r	.	1Bm	.	voice	.	40.072	B:min
16B	-ny	.	.	.	.	.	.	.	.
8B	how	.	.	.	.	.	.	.	.
8c	it	.	.	.	.	.	.	.	.
8Aq	_	.	.	.	.	.	.	.	.
[8B	seems	.	.	.	.	.	A	.	.
4.B]	_	.	.	.	.	.	.	.	.
8r	.	.	.	.	.	.	.	.	.
=18	=18	=18	=18	=18	=18	=18	=18	=18	=18
8c	al-	1r	.	1CM	.	voice	.	42.527	C:maj
8B	-ways	.	.	.	.	.	.	.	.
8A	in	.	.	.	.	.	.	.	.
[8G	time	.	.	.	.	.	B	.	.
4G]	_	.	.	.	.	.	.	.	.
8r	.	.	.	.	.	.	.	.	.
8G	but	.	.	.	.	.	.	.	.
=19	=19	=19	=19	=19	=19	=19	=19	=19	=19
8B-q	_	.	.	.	.	.	.	.	.
4.c	ne-	1r	.	1E-M	.	voice	.	44.983	E-:maj
16B-	-ver	.	.	.	.	.	.	.	.
16A	in	.	.	.	.	.	.	.	.
4G	line	.	.	.	.	.	B	.	.
8A	for	.	.	.	.	.	.	.	.
16B	dreams	.	.	.	.	.	A	.	.
16A	_	.	.	.	.	.	.	.	.
=20	=20	=20	=20	=20	=20	=20	=20	=20	=20
4.B	_	1r	.	1GM	newline	voice	.	47.438	G:maj
8r	.	.	.	.	.	.	.	.	.
8B	Head	.	.	.	.	.	.	.	.
8d	o-	.	.	.	.	.	.	.	.
8e	-ver	.	.	.	.	.	.	.	.
[8f#	heels	.	.	.	.	.	.	.	.
=21	=21	=21	=21	=21	=21	=21	=21	=21	=21
4f#]	_	1r	.	1Bm	.	voice	.	49.917	B:min
8c#q	_	.	.	.	.	.	.	.	.
4d	when	.	.	.	.	.	.	.	.
8B	toe	.	.	.	.	.	C	.	.
[8d	to	.	.	.	.	.	.	.	.
4d]	_	.	.	.	.	.	.	.	.
=22	=22	=22	=22	=22	=22	=22	=22	=22	=22
4G	toe	1r	.	2..CM	.	voice	C	.	C:maj
8E	_	.	.	.	.	.	.	.	.
8r	.	.	.	.	.	.	.	.	.
8G	this	.	.	.	.	.	.	.	.
8A	is	.	.	.	.	.	.	.	.
8G	the	.	.	.	.	.	.	.	.
[8d	sound	.	.	8Emm	->newline	voice	.	.	E:min7
=23	=23	=23	=23	=23	=23	=23	=23	=23	=23
2d_	_	1r	.	2..Emm	.	voice	.	54.875	E:min7
8d]	_	.	.	.	.	.	.	.	.
8e	of	.	.	.	.	.	.	.	.
8d	my	.	.	.	.	.	.	.	.
[8G	soul	.	.	8CM	.	voice	C	.	C:maj
=24	=24	=24	=24	=24	=24	=24	=24	=24	=24
4G]	_	1r	.	2..CM	.	voice	.	.	C:maj
4r	.	.	.	.	.	.	.	.	.
8G	This	.	.	.	.	.	.	.	.
8A	is	.	.	.	.	.	.	.	.
8G	the	.	.	.	.	.	.	.	.
16.d	sound	.	.	8GM	.	voice	.	.	G:maj
32c	_	.	.	.	.	.	.	.	.
=25	=25	=25	=25	=25	=25	=25	=25	=25	=25
1d	_	1r	.	2GM	.	voice	.	.	G:maj
.	.	.	.	2GM	.	voice	.	.	G:maj/7
=26	=26	=26	=26	=26	=26	=26	=26	=26	=26
8r	.	1r	.	1CM	.	voice	.	.	C:maj
8e	I	.	.	.	.	.	.	.	.
8e	bought	.	.	.	.	.	.	.	.
8e	a	.	.	.	.	.	.	.	.
16e	ti-	.	.	.	.	.	.	.	.
16d	-cket	.	.	.	.	.	.	.	.
8c	to	.	.	.	.	.	.	.	.
8B	the	.	.	.	.	.	.	.	.
8Aq	_	.	.	.	.	.	.	.	.
[8B	world	.	.	.	.	.	.	.	.
=27	=27	=27	=27	=27	=27	=27	=27	=27	=27
16B]	_	1r	.	1GM	newline	voice	.	62.241	G:maj
16A	_	.	.	.	.	.	.	.	.
[8B	_	.	.	.	.	.	.	.	.
8.B]	_	.	.	.	.	.	.	.	.
16r	.	.	.	.	.	.	.	.	.
2r	.	.	.	.	.	.	.	.	.
=28	=28	=28	=28	=28	=28	=28	=28	=28	=28
8r	.	1r	.	2CM	.	voice	.	.	C:maj
8c	but	.	.	.	.	.	.	.	.
8c	now	.	.	.	.	.	.	.	.
8c	I've	.	.	.	.	.	.	.	.
8c	come	.	.	2CM	.	voice	.	.	C:maj/7
8B	back	.	.	.	.	.	.	.	.
8A	a-	.	.	.	.	.	.	.	.
[8B	-gain	.	.	.	.	.	D	.	.
=29	=29	=29	=29	=29	=29	=29	=29	=29	=29
16B]	_	1r	.	1GM	.	voice	.	.	G:maj
16A	_	.	.	.	.	.	.	.	.
[8G	_	.	.	.	.	.	.	.	.
8G]	_	.	.	.	.	.	.	.	.
8r	.	.	.	.	.	.	.	.	.
2r	.	.	.	.	.	.	.	.	.
=30	=30	=30	=30	=30	=30	=30	=30	=30	=30
4r	.	1r	.	2CM	.	voice	.	.	C:maj
8e	Why	.	.	.	.	.	.	.	.
16e	do	.	.	.	.	.	.	.	.
16e	I	.	.	.	.	.	.	.	.
8g	find	.	.	2CM	.	voice	.	.	C:maj/7
8g	it	.	.	.	.	.	.	.	.
8eq	_	.	.	.	.	.	.	.	.
8d	hard	.	.	.	.	.	.	.	.
8d	to	.	.	.	.	.	.	.	.
=31	=31	=31	=31	=31	=31	=31	=31	=31	=31
8e	write	1r	.	1GM	newline	voice	.	72.042	G:maj
16d	the	.	.	.	.	.	.	.	.
[16d	next	.	.	.	.	.	.	.	.
8d]	_	.	.	.	.	.	.	.	.
8B	line	.	.	.	.	.	.	.	.
4r	.	.	.	.	.	.	.	.	.
8r	.	.	.	.	.	.	.	.	.
8G	Oh,	.	.	.	.	.	.	.	.
=32	=32	=32	=32	=32	=32	=32	=32	=32	=32
*M3/4	*	*M3/4	*	*M3/4	*M3/4	*M3/4	*	*M3/4	*M3/4
8c	I	2.r	.	4.CM	.	voice	.	.	C:maj
8B	want	.	.	.	.	.	.	.	.
8G	the	.	.	.	.	.	.	.	.
8c	truth	.	.	4.CM	.	voice	.	.	C:maj/7
8B	to	.	.	.	.	.	.	.	.
8G	be	.	.	.	.	.	.	.	.
=33	=33	=33	=33	=33	=33	=33	=33	=33	=33
*M4/4	*	*M4/4	*	*M4/4	*M4/4	*M4/4	*	*M4/4	*M4/4
2.G	said	1r	.	1FMM	.	voice	D	.	F:maj9
4r	.	.	.	.	.	.	.	.	.
=34	=34	=34	=34	=34	=34	=34	=34	=34	=34
*>Letter>A	*>Letter>A	*>Letter>A	*>Letter>A	*>Letter>A	*>Letter>A	*>Letter>A	*>Letter>A	*>Letter>A	*>Letter>A
*>Label>Chorus	*>Label>Chorus	*>Label>Chorus	*>Label>Chorus	*>Label>Chorus	*>Label>Chorus	*>Label>Chorus	*>Label>Chorus	*>Label>Chorus	*>Label>Chorus
1r	.	4r	.	1GM	newline	voice	.	81.305	G:maj
.	.	4B	Ha	.	.	.	.	.	.
.	.	8c	ha	.	.	.	.	.	.
.	.	8d	ha	.	.	.	.	.	.
.	.	8r	.	.	.	.	.	.	.
.	.	8eq	_	.	.	.	.	.	.
.	.	[8f#	ha	.	.	.	.	.	.
=35	=35	=35	=35	=35	=35	=35	=35	=35	=35
2r	.	4.f#]	_	1Emm	.	voice	.	.	E:min9
.	.	8d	ha	.	.	.	.	.	.
4r	.	2r	.	.	.	.	.	.	.
8r	.	.	.	.	.	.	.	.	.
8G	I	.	.	.	.	.	.	.	.
=36	=36	=36	=36	=36	=36	=36	=36	=36	=36
4.d	know	4.d	know	1CMM	.	voice	.	.	C:maj9
[8G	this	[8G	this	.	.	.	.	.	.
4G]	_	4G]	_	.	.	.	.	.	.
4r	.	4r	.	.	.	.	.	.	.
=37	=37	=37	=37	=37	=37	=37	=37	=37	=37
4.d	much	4.d	much	1Bmm	.	voice	.	.	B:min7
8G	is	8G	is	.	.	.	.	.	.
4r	.	4r	.	.	.	.	.	.	.
8A	true!	8A	true!	.	.	.	.	.	.
8G	_	8G	_	.	.	.	.	.	.
=38	=38	=38	=38	=38	=38	=38	=38	=38	=38
1r	.	4r	.	1GM	newline	voice	.	91.119	G:maj
.	.	4B	Ha	.	.	.	.	.	.
.	.	8c	ha	.	.	.	.	.	.
.	.	8d	ha	.	.	.	.	.	.
.	.	8r	.	.	.	.	.	.	.
.	.	8eq	_	.	.	.	.	.	.
.	.	8f#	ha	.	.	.	.	.	.
=39	=39	=39	=39	=39	=39	=39	=39	=39	=39
2r	.	4.f#	_	1Emm	.	voice	.	.	E:min9
.	.	8d	ha	.	.	.	.	.	.
4r	.	2r	.	.	.	.	.	.	.
8r	.	.	.	.	.	.	.	.	.
8G	_	.	.	.	.	.	.	.	.
=40	=40	=40	=40	=40	=40	=40	=40	=40	=40
4.d	know	4.d	know	1CMM	.	voice	.	.	C:maj9
[8G	this	[8G	this	.	.	.	.	.	.
4G]	_	4G]	_	.	.	.	.	.	.
4r	.	4r	.	.	.	.	.	.	.
=41	=41	=41	=41	=41	=41	=41	=41	=41	=41
4.d	much	4.d	much	1Bmm	.	voice	.	.	B:min7
[8G	is	[8G	is	.	.	.	.	.	.
8G]	_	8G]	_	.	.	.	.	.	.
4r	.	4r	.	.	.	.	.	.	.
8r	.	8r	.	.	.	.	.	.	.
=42	=42	=42	=42	=42	=42	=42	=42	=42	=42
8e	true	4e	true!	1Am	newline	voice	.	101.025	A:min
8d#q	_	.	.	.	.	.	.	.	.
16.e	_	.	.	.	.	.	.	.	.
32~dd	_	.	.	.	.	.	.	.	.
2r	.	2r	.	.	.	.	.	.	.
4r	.	4r	.	.	.	.	.	.	.
=43	=43	=43	=43	=43	=43	=43	=43	=43	=43
1r	.	1r	.	1FM	.	voice	.	.	F:maj6(9)
=44	=44	=44	=44	=44	=44	=44	=44	=44	=44
1r	.	1r	.	1N	.	r	.	.	N.C.
=45	=45	=45	=45	=45	=45	=45	=45	=45	=45
*>Letter>B	*>Letter>B	*>Letter>B	*>Letter>B	*>Letter>B	*>Letter>B	*>Letter>B	*>Letter>B	*>Letter>B	*>Letter>B
*>Label>Verse	*>Label>Verse	*>Label>Verse	*>Label>Verse	*>Label>Verse	*>Label>Verse	*>Label>Verse	*>Label>Verse	*>Label>Verse	*>Label>Verse
4r	.	1r	.	1GM	newline	voice	.	108.436	G:maj
8B	With	.	.	.	.	.	.	.	.
8B	a	.	.	.	.	.	.	.	.
8c	thrill	.	.	.	.	.	E	.	.
8B	in	.	.	.	.	.	.	.	.
8B	my	.	.	.	.	.	.	.	.
16.d	head	.	.	.	.	.	.	.	.
32c	_	.	.	.	.	.	.	.	.
=46	=46	=46	=46	=46	=46	=46	=46	=46	=46
16B	_	1r	.	1Bm	.	voice	.	.	B:min
8r	.	.	.	.	.	.	.	.	.
16r	.	.	.	.	.	.	.	.	.
8B	and	.	.	.	.	.	.	.	.
8B	a	.	.	.	.	.	.	.	.
8d	pill	.	.	.	.	.	E	.	.
4e	on	.	.	.	.	.	.	.	.
[8d	my	.	.	.	.	.	.	.	.
=47	=47	=47	=47	=47	=47	=47	=47	=47	=47
8d]	_	1r	.	1CM	.	voice	.	.	C:maj
4G	tongue	.	.	.	.	.	F	.	.
8r	.	.	.	.	.	.	.	.	.
8G	dis-	.	.	.	.	.	.	.	.
8A	-solve	.	.	.	.	.	.	.	.
8G	the	.	.	.	.	.	.	.	.
16.d	nerves	.	.	.	.	.	.	.	.
32c	_	.	.	.	.	.	.	.	.
=48	=48	=48	=48	=48	=48	=48	=48	=48	=48
4.d	_	1r	.	1E-M	.	voice	.	.	E-:maj
16c	that	.	.	.	.	.	.	.	.
16c	have	.	.	.	.	.	.	.	.
4G	just	.	.	.	.	.	.	.	.
8A	be-	.	.	.	.	.	.	.	.
16B	-gun	.	.	.	.	.	F	.	.
16A	_	.	.	.	.	.	.	.	.
=49	=49	=49	=49	=49	=49	=49	=49	=49	=49
4B	_	1r	.	1GM	newline	voice	.	118.211	G:maj
4r	.	.	.	.	.	.	.	.	.
8B	List-	.	.	.	.	.	.	.	.
8c	-'ning	.	.	.	.	.	.	.	.
8d	to	.	.	.	.	.	.	.	.
[8f#	Mar	.	.	.	.	.	.	.	.
=50	=50	=50	=50	=50	=50	=50	=50	=50	=50
8f#]	_	2r	.	1Bm	.	voice	.	.	B:min
8d	_	.	.	.	.	.	.	.	.
4d	vin	.	.	.	.	.	.	.	.
2r	.	8B	All	.	.	.	.	.	.
.	.	[8a	night	.	.	.	.	.	.
.	.	16a]	_	.	.	.	.	.	.
.	.	16r	.	.	.	.	.	.	.
.	.	16gQ	_	.	.	.	.	.	.
.	.	[8a	long	.	.	.	.	.	.
=51	=51	=51	=51	=51	=51	=51	=51	=51	=51
2r	.	8a]	_	2..CM	.	voice	.	.	C:maj
.	.	4g	_	.	.	.	.	.	.
.	.	2r	.	.	.	.	.	.	.
8G	This	.	.	.	.	.	.	.	.
8A	is	.	.	.	.	.	.	.	.
8G	the	.	.	.	.	.	.	.	.
[8d	sound	8r	.	8Emm	->newline	voice	.	.	E:min7
=52	=52	=52	=52	=52	=52	=52	=52	=52	=52
2d_	_	1r	.	2..Emm	.	voice	.	125.71	E:min7
8d]	_	.	.	.	.	.	.	.	.
8e	of	.	.	.	.	.	.	.	.
8d	my	.	.	.	.	.	.	.	.
[8G	soul	.	.	8CM	.	voice	.	.	C:maj
=53	=53	=53	=53	=53	=53	=53	=53	=53	=53
4G]	_	2r	.	2..CM	.	voice	.	.	C:maj
4r	.	.	.	.	.	.	.	.	.
8G	this	8G	_	.	.	.	.	.	.
8A	is	8A	_	.	.	.	.	.	.
8G	the	8G	_	.	.	.	.	.	.
16.d	sound	16.d	_	8GM	.	voice	.	.	G:maj
32c	_	32c	_	.	.	.	.	.	.
=54	=54	=54	=54	=54	=54	=54	=54	=54	=54
1d	_	1d	_	2GM	.	voice	.	.	G:maj
.	.	.	.	2GM	.	voice	.	.	G:maj/7
=55	=55	=55	=55	=55	=55	=55	=55	=55	=55
4r	.	1r	.	1CM	.	voice	.	.	C:maj
8e	Al-	.	.	.	.	.	.	.	.
8e	-ways	.	.	.	.	.	.	.	.
16e	slip-	.	.	.	.	.	.	.	.
16d	-ping	.	.	.	.	.	.	.	.
8c	from	.	.	.	.	.	.	.	.
8B	my	.	.	.	.	.	.	.	.
8Aq	_	.	.	.	.	.	.	.	.
[8B	hands	.	.	.	.	.	.	.	.
=56	=56	=56	=56	=56	=56	=56	=56	=56	=56
16B]	_	1r	.	1GM	newline	voice	.	133.019	G:maj
16A	_	.	.	.	.	.	.	.	.
[8B	_	.	.	.	.	.	.	.	.
8.B]	_	.	.	.	.	.	.	.	.
2r	.	.	.	.	.	.	.	.	.
16r	.	.	.	.	.	.	.	.	.
=57	=57	=57	=57	=57	=57	=57	=57	=57	=57
4r	.	1r	.	2CM	.	voice	.	.	C:maj
8c	Sand's	.	.	.	.	.	.	.	.
8c	a	.	.	.	.	.	.	.	.
8c	time	.	.	2CM	.	voice	.	.	C:maj/7
8B	of	.	.	.	.	.	.	.	.
8A	its	.	.	.	.	.	.	.	.
[8B	own	.	.	.	.	.	C	.	.
=58	=58	=58	=58	=58	=58	=58	=58	=58	=58
16B]	_	1r	.	1GM	.	voice	.	.	G:maj
16A	_	.	.	.	.	.	.	.	.
[8G	_	.	.	.	.	.	.	.	.
8G]	_	.	.	.	.	.	.	.	.
2r	.	.	.	.	.	.	.	.	.
8r	.	.	.	.	.	.	.	.	.
=59	=59	=59	=59	=59	=59	=59	=59	=59	=59
4r	.	1r	.	2CM	.	voice	.	.	C:maj
8e	Take	.	.	.	.	.	.	.	.
8e	your	.	.	.	.	.	.	.	.
8g	sea-	.	.	2CM	.	voice	.	.	C:maj/7
8g	-side	.	.	.	.	.	.	.	.
8eq	_	.	.	.	.	.	.	.	.
8d	arms	.	.	.	.	.	.	.	.
8d	and	.	.	.	.	.	.	.	.
=60	=60	=60	=60	=60	=60	=60	=60	=60	=60
8e	write	1r	.	1GM	newline	voice	.	142.901	G:maj
16d	the	.	.	.	.	.	.	.	.
[16d	next	.	.	.	.	.	.	.	.
8d]	_	.	.	.	.	.	.	.	.
8Aq	_	.	.	.	.	.	.	.	.
8B	line	.	.	.	.	.	.	.	.
8A	_	.	.	.	.	.	.	.	.
4r	.	.	.	.	.	.	.	.	.
8G	Oh,	.	.	.	.	.	.	.	.
=61	=61	=61	=61	=61	=61	=61	=61	=61	=61
*M3/4	*	*M3/4	*	*M3/4	*M3/4	*M3/4	*	*M3/4	*M3/4
8c	I	2.r	.	4.CM	.	voice	.	.	C:maj
8B	want	.	.	.	.	.	.	.	.
8G	the	.	.	.	.	.	.	.	.
8c	truth	.	.	4.CM	.	voice	.	.	C:maj/7
8B	to	.	.	.	.	.	.	.	.
8G	be	.	.	.	.	.	.	.	.
=62	=62	=62	=62	=62	=62	=62	=62	=62	=62
*M4/4	*	*M4/4	*	*M4/4	*M4/4	*M4/4	*	*M4/4	*M4/4
2.G	known	1r	.	1FMM	.	voice	C	.	F:maj9
4r	.	.	.	.	.	.	.	.	.
=63	=63	=63	=63	=63	=63	=63	=63	=63	=63
*>Letter>A	*>Letter>A	*>Letter>A	*>Letter>A	*>Letter>A	*>Letter>A	*>Letter>A	*>Letter>A	*>Letter>A	*>Letter>A
*>Label>Chorus	*>Label>Chorus	*>Label>Chorus	*>Label>Chorus	*>Label>Chorus	*>Label>Chorus	*>Label>Chorus	*>Label>Chorus	*>Label>Chorus	*>Label>Chorus
1r	.	4r	.	1GM	newline	voice	.	152.199	G:maj
.	.	4B	Ha	.	.	.	.	.	.
.	.	8c	ha	.	.	.	.	.	.
.	.	8d	ha	.	.	.	.	.	.
.	.	8r	.	.	.	.	.	.	.
.	.	8eq	_	.	.	.	.	.	.
.	.	[8f#	ha	.	.	.	.	.	.
=64	=64	=64	=64	=64	=64	=64	=64	=64	=64
2r	.	4.f#]	_	1Emm	.	voice	.	.	E:min9
.	.	8d	ha	.	.	.	.	.	.
4r	.	2r	.	.	.	.	.	.	.
8r	.	.	.	.	.	.	.	.	.
8G	I	.	.	.	.	.	.	.	.
=65	=65	=65	=65	=65	=65	=65	=65	=65	=65
4.d	know	4.d	know	1CMM	.	voice	.	.	C:maj9
[8G	this	[8G	this	.	.	.	.	.	.
4G]	_	4G]	_	.	.	.	.	.	.
4r	.	4r	.	.	.	.	.	.	.
=66	=66	=66	=66	=66	=66	=66	=66	=66	=66
4.d	much	4.d	much	1Bmm	.	voice	.	.	B:min7
8G	is	8G	is	.	.	.	.	.	.
4r	.	4r	.	.	.	.	.	.	.
8A	true!	8A	true!	.	.	.	.	.	.
8G	_	8G	_	.	.	.	.	.	.
=67	=67	=67	=67	=67	=67	=67	=67	=67	=67
1r	.	4r	.	1GM	newline	voice	.	161.991	G:maj
.	.	4B	Ha	.	.	.	.	.	.
.	.	8c	ha	.	.	.	.	.	.
.	.	8d	ha	.	.	.	.	.	.
.	.	8r	.	.	.	.	.	.	.
.	.	8eq	_	.	.	.	.	.	.
.	.	8f#	ha	.	.	.	.	.	.
=68	=68	=68	=68	=68	=68	=68	=68	=68	=68
2r	.	4.f#	_	1Emm	.	voice	.	.	E:min9
.	.	8d	ha	.	.	.	.	.	.
4r	.	2r	.	.	.	.	.	.	.
8r	.	.	.	.	.	.	.	.	.
8G	_	.	.	.	.	.	.	.	.
=69	=69	=69	=69	=69	=69	=69	=69	=69	=69
4.d	know	4.d	know	1CMM	.	voice	.	.	C:maj9
[8G	this	[8G	this	.	.	.	.	.	.
4G]	_	4G]	_	.	.	.	.	.	.
4r	.	4r	.	.	.	.	.	.	.
=70	=70	=70	=70	=70	=70	=70	=70	=70	=70
4.d	much	4.d	much	1Bmm	.	voice	.	.	B:min7
[8G	is	[8G	is	.	.	.	.	.	.
8G]	_	8G]	_	.	.	.	.	.	.
4r	.	4r	.	.	.	.	.	.	.
8r	.	8r	.	.	.	.	.	.	.
=71	=71	=71	=71	=71	=71	=71	=71	=71	=71
8e	true	4e	true!	1Am	newline	voice	.	171.802	A:min
8d#q	_	.	.	.	.	.	.	.	.
16.e	_	.	.	.	.	.	.	.	.
32~dd	_	.	.	.	.	.	.	.	.
2r	.	2r	.	.	.	.	.	.	.
4r	.	4r	.	.	.	.	.	.	.
=72	=72	=72	=72	=72	=72	=72	=72	=72	=72
1r	.	1r	.	1FM	.	voice	.	.	F:maj6(9)
=73	=73	=73	=73	=73	=73	=73	=73	=73	=73
1r	.	1r	.	2..FM	.	voice	.	.	F:maj6(9)
.	.	.	.	8E-M	.	saxophone	.	.	E-:maj
=74	=74	=74	=74	=74	=74	=74	=74	=74	=74
*>Letter>C	*>Letter>C	*>Letter>C	*>Letter>C	*>Letter>C	*>Letter>C	*>Letter>C	*>Letter>C	*>Letter>C	*>Letter>C
*>Label>Solo	*>Label>Solo	*>Label>Solo	*>Label>Solo	*>Label>Solo	*>Label>Solo	*>Label>Solo	*>Label>Solo	*>Label>Solo	*>Label>Solo
*E-:	*	*E-:	*	*E-:	*E-:	*E-:	*	*E-:	*E-:
1r	.	1r	.	1E-M	newline	saxophone	.	179.298	E-:maj
=75	=75	=75	=75	=75	=75	=75	=75	=75	=75
1r	.	1r	.	1A-M	.	saxophone	.	.	A-:maj
=76	=76	=76	=76	=76	=76	=76	=76	=76	=76
1r	.	1r	.	1E-M	.	saxophone	.	.	E-:maj
=77	=77	=77	=77	=77	=77	=77	=77	=77	=77
1r	.	1r	.	1A-M	.	saxophone	.	.	A-:maj
=78	=78	=78	=78	=78	=78	=78	=78	=78	=78
1r	.	1r	.	1E-M	newline	saxophone	.	189.132	E-:maj
=79	=79	=79	=79	=79	=79	=79	=79	=79	=79
1r	.	1r	.	1A-M	.	saxophone	.	.	A-:maj
=80	=80	=80	=80	=80	=80	=80	=80	=80	=80
1r	.	1r	.	1E-M	.	saxophone	.	.	E-:maj
=81	=81	=81	=81	=81	=81	=81	=81	=81	=81
1r	.	1r	.	1A-M	.	saxophone	.	.	A-:maj
=82	=82	=82	=82	=82	=82	=82	=82	=82	=82
1r	.	1r	.	1E-M	newline	saxophone	.	198.961	E-:maj
=83	=83	=83	=83	=83	=83	=83	=83	=83	=83
1r	.	1r	.	1A-M	.	saxophone	.	.	A-:maj
=84	=84	=84	=84	=84	=84	=84	=84	=84	=84
1r	.	1r	.	1E-M	.	saxophone	.	.	E-:maj
=85	=85	=85	=85	=85	=85	=85	=85	=85	=85
1r	.	1r	.	1A-M	.	saxophone	.	.	A-:maj
=86	=86	=86	=86	=86	=86	=86	=86	=86	=86
1r	.	1r	.	1E-M	newline	saxophone	.	208.84	E-:maj
=87	=87	=87	=87	=87	=87	=87	=87	=87	=87
1r	.	1r	.	1A-M	.	saxophone	.	.	A-:maj
=88	=88	=88	=88	=88	=88	=88	=88	=88	=88
*C:	*	*C:	*	*C:	*C:	*C:	*	*C:	*C:
1r	.	1r	.	1GM	.	saxophone	.	.	G:maj
=89	=89	=89	=89	=89	=89	=89	=89	=89	=89
1r	.	1r	.	1GM	.	saxophone	.	.	G:maj
=90	=90	=90	=90	=90	=90	=90	=90	=90	=90
*>Letter>B	*>Letter>B	*>Letter>B	*>Letter>B	*>Letter>B	*>Letter>B	*>Letter>B	*>Letter>B	*>Letter>B	*>Letter>B
*>Label>Verse	*>Label>Verse	*>Label>Verse	*>Label>Verse	*>Label>Verse	*>Label>Verse	*>Label>Verse	*>Label>Verse	*>Label>Verse	*>Label>Verse
8r	.	1r	.	2CM	newline	voice	.	218.678	C:maj
8e	I	.	.	.	.	.	.	.	.
8e	bought	.	.	.	.	.	.	.	.
8e	a	.	.	.	.	.	.	.	.
16e	ti-	.	.	2CM	.	voice	.	.	C:maj/7
16e	-cket	.	.	.	.	.	.	.	.
8f#	to	.	.	.	.	.	.	.	.
8e	the	.	.	.	.	.	.	.	.
8g	wo-	.	.	.	.	.	.	.	.
=91	=91	=91	=91	=91	=91	=91	=91	=91	=91
8r	.	1r	.	1GM	.	voice	.	.	G:maj
8e	-ho-	.	.	.	.	.	.	.	.
8r	.	.	.	.	.	.	.	.	.
[8d	-horld	.	.	.	.	.	.	.	.
8d]	_	.	.	.	.	.	.	.	.
16B	_	.	.	.	.	.	.	.	.
16~ee-	_	.	.	.	.	.	.	.	.
4r	.	.	.	.	.	.	.	.	.
=92	=92	=92	=92	=92	=92	=92	=92	=92	=92
8r	.	1r	.	1CM	.	voice	.	.	C:maj
8c	But	.	.	.	.	.	.	.	.
8c	now	.	.	.	.	.	.	.	.
8c	I've	.	.	.	.	.	.	.	.
8c	come	.	.	.	.	.	.	.	.
8B	back	.	.	.	.	.	.	.	.
8A	a-	.	.	.	.	.	.	.	.
16.B	-gain	.	.	.	.	.	D	.	.
32A	_	.	.	.	.	.	.	.	.
=93	=93	=93	=93	=93	=93	=93	=93	=93	=93
8B	_	1r	.	1GM	.	voice	.	.	G:maj
2r	.	.	.	.	.	.	.	.	.
4r	.	.	.	.	.	.	.	.	.
8r	.	.	.	.	.	.	.	.	.
=94	=94	=94	=94	=94	=94	=94	=94	=94	=94
4r	.	1r	.	2CM	newline	voice	.	228.478	C:maj
8e	Why	.	.	.	.	.	.	.	.
16e	do	.	.	.	.	.	.	.	.
16e	I	.	.	.	.	.	.	.	.
8g	find	.	.	2CM	.	voice	.	.	C:maj/7
8g	it	.	.	.	.	.	.	.	.
8eq	_	.	.	.	.	.	.	.	.
8d	hard	.	.	.	.	.	.	.	.
8d	to	.	.	.	.	.	.	.	.
=95	=95	=95	=95	=95	=95	=95	=95	=95	=95
8e	write	1r	.	1GM	.	voice	.	.	G:maj
16d	the	.	.	.	.	.	.	.	.
[16d	next	.	.	.	.	.	.	.	.
8d]	_	.	.	.	.	.	.	.	.
8Aq	_	.	.	.	.	.	.	.	.
8B	line	.	.	.	.	.	.	.	.
4A	_	.	.	.	.	.	.	.	.
8r	.	.	.	.	.	.	.	.	.
8G	Oh,	.	.	.	.	.	.	.	.
=96	=96	=96	=96	=96	=96	=96	=96	=96	=96
*M3/4	*	*M3/4	*	*M3/4	*M3/4	*M3/4	*	*M3/4	*M3/4
8c	I	2.r	.	4.CM	.	voice	.	.	C:maj
8B	want	.	.	.	.	.	.	.	.
8G	the	.	.	.	.	.	.	.	.
8c	truth	.	.	4.GM	.	voice	.	.	G:maj/3
8B	to	.	.	.	.	.	.	.	.
8G	be	.	.	.	.	.	.	.	.
=97	=97	=97	=97	=97	=97	=97	=97	=97	=97
*M4/4	*	*M4/4	*	*M4/4	*M4/4	*M4/4	*	*M4/4	*M4/4
[2.g	said	1r	.	1FMM	.	voice	D	.	F:maj9
16g]	_	.	.	.	.	.	.	.	.
16~ee	_	.	.	.	.	.	.	.	.
8r	.	.	.	.	.	.	.	.	.
=98	=98	=98	=98	=98	=98	=98	=98	=98	=98
1r	.	1r	.	1FMM	.	voice	.	.	F:maj9
=99	=99	=99	=99	=99	=99	=99	=99	=99	=99
*>Letter>A	*>Letter>A	*>Letter>A	*>Letter>A	*>Letter>A	*>Letter>A	*>Letter>A	*>Letter>A	*>Letter>A	*>Letter>A
*>Label>Chorus	*>Label>Chorus	*>Label>Chorus	*>Label>Chorus	*>Label>Chorus	*>Label>Chorus	*>Label>Chorus	*>Label>Chorus	*>Label>Chorus	*>Label>Chorus
1r	.	4r	.	1GM	newline	voice	.	240.187	G:maj
.	.	4B	Ha	.	.	.	.	.	.
.	.	8c	ha	.	.	.	.	.	.
.	.	8d	ha	.	.	.	.	.	.
.	.	8r	.	.	.	.	.	.	.
.	.	8eq	_	.	.	.	.	.	.
.	.	[8f#	ha	.	.	.	.	.	.
=100	=100	=100	=100	=100	=100	=100	=100	=100	=100
2r	.	4.f#]	_	1Emm	.	voice	.	.	E:min9
.	.	8d	ha	.	.	.	.	.	.
4r	.	2r	.	.	.	.	.	.	.
8r	.	.	.	.	.	.	.	.	.
8G	I	.	.	.	.	.	.	.	.
=101	=101	=101	=101	=101	=101	=101	=101	=101	=101
4.d	know	4.d	know	1CMM	.	voice	.	.	C:maj9
[8G	this	[8G	this	.	.	.	.	.	.
4G]	_	4G]	_	.	.	.	.	.	.
4r	.	4r	.	.	.	.	.	.	.
=102	=102	=102	=102	=102	=102	=102	=102	=102	=102
4.d	much	4.d	much	1Bmm	.	voice	.	.	B:min7
8G	is	8G	is	.	.	.	.	.	.
4r	.	4r	.	.	.	.	.	.	.
8A	true!	8A	true!	.	.	.	.	.	.
8G	_	8G	_	.	.	.	.	.	.
=103	=103	=103	=103	=103	=103	=103	=103	=103	=103
1r	.	4r	.	1GM	newline	voice	.	250.037	G:maj
.	.	4B	Ha	.	.	.	.	.	.
.	.	8c	ha	.	.	.	.	.	.
.	.	8d	ha	.	.	.	.	.	.
.	.	8r	.	.	.	.	.	.	.
.	.	8eq	_	.	.	.	.	.	.
.	.	8f#	ha	.	.	.	.	.	.
=104	=104	=104	=104	=104	=104	=104	=104	=104	=104
2r	.	4.f#	_	1Emm	.	voice	.	.	E:min9
.	.	8d	ha	.	.	.	.	.	.
4r	.	2r	.	.	.	.	.	.	.
8r	.	.	.	.	.	.	.	.	.
8G	I	.	.	.	.	.	.	.	.
=105	=105	=105	=105	=105	=105	=105	=105	=105	=105
4.d	know	4.d	know	1CMM	.	voice	.	.	C:maj9
[8G	this	[8G	this	.	.	.	.	.	.
4G]	_	4G]	_	.	.	.	.	.	.
4r	.	4r	.	.	.	.	.	.	.
=106	=106	=106	=106	=106	=106	=106	=106	=106	=106
4.d	much	4.d	much	1Bmm	.	voice	.	.	B:min7
[8G	is	[8G	is	.	.	.	.	.	.
8G]	_	8G]	_	.	.	.	.	.	.
4r	.	4r	.	.	.	.	.	.	.
8r	.	8r	.	.	.	.	.	.	.
=107	=107	=107	=107	=107	=107	=107	=107	=107	=107
*>Letter>D	*>Letter>D	*>Letter>D	*>Letter>D	*>Letter>D	*>Letter>D	*>Letter>D	*>Letter>D	*>Letter>D	*>Letter>D
*>Label>Coda	*>Label>Coda	*>Label>Coda	*>Label>Coda	*>Label>Coda	*>Label>Coda	*>Label>Coda	*>Label>Coda	*>Label>Coda	*>Label>Coda
8e	true	4e	true	1Amm	newline	voice	.	259.932	A:min7
8d#q	_	.	.	.	.	.	.	.	.
16.e	_	.	.	.	.	.	.	.	.
32~dd	_	.	.	.	.	.	.	.	.
2r	.	2r	.	.	.	.	.	.	.
4r	.	4r	.	.	.	.	.	.	.
=108	=108	=108	=108	=108	=108	=108	=108	=108	=108
1r	.	1r	.	1Emm	.	voice	.	.	E:min7
=109	=109	=109	=109	=109	=109	=109	=109	=109	=109
1r	.	1r	.	1Amm	.	voice	.	.	A:min7
=110	=110	=110	=110	=110	=110	=110	=110	=110	=110
2r	.	1r	.	1Emm	.	voice	.	.	E:min9
8r	.	.	.	.	.	.	.	.	.
16f#	This	.	.	.	.	.	.	.	.
[16g	_	.	.	.	.	.	.	.	.
4g]	_	.	.	.	.	.	.	.	.
=111	=111	=111	=111	=111	=111	=111	=111	=111	=111
12g	much	1r	.	1Amm	newline	voice	.	269.772	A:min7
6e	is	.	.	.	.	.	.	.	.
8e	true	.	.	.	.	.	.	.	.
8d#q	_	.	.	.	.	.	.	.	.
16.e	_	.	.	.	.	.	.	.	.
32~b	_	.	.	.	.	.	.	.	.
2r	.	.	.	.	.	.	.	.	.
=112	=112	=112	=112	=112	=112	=112	=112	=112	=112
1r	.	1r	.	1FM	.	voice	.	.	F:maj6(9)
=113	=113	=113	=113	=113	=113	=113	=113	=113	=113
1r	.	1r	.	1FM	.	voice	.	.	F:maj6(9)
=114	=114	=114	=114	=114	=114	=114	=114	=114	=114
*>Letter>A2	*>Letter>A2	*>Letter>A2	*>Letter>A2	*>Letter>A2	*>Letter>A2	*>Letter>A2	*>Letter>A2	*>Letter>A2	*>Letter>A2
*>Label>Outro	*>Label>Outro	*>Label>Outro	*>Label>Outro	*>Label>Outro	*>Label>Outro	*>Label>Outro	*>Label>Outro	*>Label>Outro	*>Label>Outro
1r	.	8r	.	1GM	newline	voice	.	277.128	G:maj
.	.	8D 8d	This	.	.	.	.	.	.
.	.	8D 8d	much	.	.	.	.	.	.
.	.	16E 16e	is	.	.	.	.	.	.
.	.	16D 16d	a'	.	.	.	.	.	.
.	.	8G 8g	true	.	.	.	.	.	.
.	.	16A# 16a#	_	.	.	.	.	.	.
.	.	16B 16b	_	.	.	.	.	.	.
.	.	4r	.	.	.	.	.	.	.
=115	=115	=115	=115	=115	=115	=115	=115	=115	=115
1r	.	8r	.	1Emm	.	voice	.	.	E:min9
.	.	8D 8d	This	.	.	.	.	.	.
.	.	8D 8d	much	.	.	.	.	.	.
.	.	16E 16e	is	.	.	.	.	.	.
.	.	16D 16d	a'	.	.	.	.	.	.
.	.	8G 8g	true	.	.	.	.	.	.
.	.	16A# 16a#	_	.	.	.	.	.	.
.	.	16B 16b	_	.	.	.	.	.	.
.	.	8r	.	.	.	.	.	.	.
.	.	8G 8g	hoo!	.	.	.	.	.	.
=116	=116	=116	=116	=116	=116	=116	=116	=116	=116
2r	.	1r	.	1CMM	.	voice	.	.	C:maj9
4r	.	.	.	.	.	.	.	.	.
8r	.	.	.	.	.	.	.	.	.
8g	I	.	.	.	.	.	.	.	.
=117	=117	=117	=117	=117	=117	=117	=117	=117	=117
8g	know,	1r	.	1Bmm	.	voice	.	.	B:min7
8f#	I	.	.	.	.	.	.	.	.
8f#	know,	.	.	.	.	.	.	.	.
8e	I	.	.	.	.	.	.	.	.
8e	know	.	.	.	.	.	.	.	.
8d	this	.	.	.	.	.	.	.	.
8d	much	.	.	.	.	.	.	.	.
8e	is	.	.	.	.	.	.	.	.
=118	=118	=118	=118	=118	=118	=118	=118	=118	=118
8.d	true	8r	.	1GM	newline	voice	.	287.025	G:maj
.	.	8D 8d	This	.	.	.	.	.	.
16c	_	.	.	.	.	.	.	.	.
8B	_	8D 8d	much	.	.	.	.	.	.
2r	.	16E 16e	is	.	.	.	.	.	.
.	.	16D 16d	a'	.	.	.	.	.	.
.	.	8G 8g	true	.	.	.	.	.	.
.	.	16A# 16a#	_	.	.	.	.	.	.
.	.	16B 16b	_	.	.	.	.	.	.
.	.	4r	.	.	.	.	.	.	.
8r	.	.	.	.	.	.	.	.	.
=119	=119	=119	=119	=119	=119	=119	=119	=119	=119
1r	.	8r	.	1Emm	.	voice	.	.	E:min9
.	.	8D 8d	This	.	.	.	.	.	.
.	.	8D 8d	much	.	.	.	.	.	.
.	.	16E 16e	is	.	.	.	.	.	.
.	.	16D 16d	a'	.	.	.	.	.	.
.	.	8G 8g	true	.	.	.	.	.	.
.	.	16A# 16a#	_	.	.	.	.	.	.
.	.	16B 16b	_	.	.	.	.	.	.
.	.	8r	.	.	.	.	.	.	.
.	.	8G 8g	hoo!	.	.	.	.	.	.
=120	=120	=120	=120	=120	=120	=120	=120	=120	=120
1r	.	1r	.	1CMM	.	voice	.	.	C:maj9
=121	=121	=121	=121	=121	=121	=121	=121	=121	=121
1r	.	1r	.	1Bmm	.	voice	.	.	B:min7
=122	=122	=122	=122	=122	=122	=122	=122	=122	=122
2r	.	8r	.	1GM	newline	voice	.	296.867	G:maj
.	.	8D 8d	This	.	.	.	.	.	.
.	.	8D 8d	much	.	.	.	.	.	.
.	.	16E 16e	is	.	.	.	.	.	.
.	.	16D 16d	a'	.	.	.	.	.	.
4r	.	8G 8g	true	.	.	.	.	.	.
.	.	16A# 16a#	_	.	.	.	.	.	.
.	.	16B 16b	_	.	.	.	.	.	.
8r	.	4r	.	.	.	.	.	.	.
16e	Ha	.	.	.	.	.	.	.	.
[16f#	_	.	.	.	.	.	.	.	.
=123	=123	=123	=123	=123	=123	=123	=123	=123	=123
2f#]	_	8r	.	1Emm	.	voice	.	.	E:min9
.	.	8D 8d	This	.	.	.	.	.	.
.	.	8D 8d	much	.	.	.	.	.	.
.	.	16E 16e	is	.	.	.	.	.	.
.	.	16D 16d	a'	.	.	.	.	.	.
4r	.	8G 8g	true	.	.	.	.	.	.
.	.	16A# 16a#	_	.	.	.	.	.	.
.	.	16B 16b	_	.	.	.	.	.	.
8r	.	8r	.	.	.	.	.	.	.
8g	I	8G 8g	hoo!	.	.	.	.	.	.
=124	=124	=124	=124	=124	=124	=124	=124	=124	=124
4.g	know	4.d	_	1CMM	.	voice	.	.	C:maj9
16d	this	[8G	_	.	.	.	.	.	.
[16e	_	.	.	.	.	.	.	.	.
8e]	_	4G]	_	.	.	.	.	.	.
4r	.	.	.	.	.	.	.	.	.
.	.	4r	.	.	.	.	.	.	.
8r	.	.	.	.	.	.	.	.	.
=125	=125	=125	=125	=125	=125	=125	=125	=125	=125
8f#q	_	.	.	.	.	.	.	.	.
4.g	much	4.d	_	1Bmm	.	voice	.	.	B:min7
8d	is	8G	_	.	.	.	.	.	.
4r	.	4r	.	.	.	.	.	.	.
8gq	_	.	.	.	.	.	.	.	.
8a	true	8A	_	.	.	.	.	.	.
8g	_	8G	_	.	.	.	.	.	.
=126	=126	=126	=126	=126	=126	=126	=126	=126	=126
*>Label>>Fadeout	*>Label>>Fadeout	*>Label>>Fadeout	*>Label>>Fadeout	*>Label>>Fadeout	*>Label>>Fadeout	*>Label>>Fadeout	*>Label>>Fadeout	*>Label>>Fadeout	*>Label>>Fadeout
2r	.	8r	.	1GM	newline	voice	.	306.669	G:maj
.	.	8D 8d	This	.	.	.	.	.	.
.	.	8D 8d	much	.	.	.	.	.	.
.	.	16E 16e	is	.	.	.	.	.	.
.	.	16D 16d	a'	.	.	.	.	.	.
4r	.	8G 8g	true	.	.	.	.	.	.
.	.	16A# 16a#	_	.	.	.	.	.	.
.	.	16B 16b	_	.	.	.	.	.	.
8r	.	4r	.	.	.	.	.	.	.
16e	Ha	.	.	.	.	.	.	.	.
[16f#	_	.	.	.	.	.	.	.	.
=127	=127	=127	=127	=127	=127	=127	=127	=127	=127
2f#]	_	8r	.	1Emm	.	voice	.	.	E:min9
.	.	8D 8d	This	.	.	.	.	.	.
.	.	8D 8d	much	.	.	.	.	.	.
.	.	16E 16e	is	.	.	.	.	.	.
.	.	16D 16d	a'	.	.	.	.	.	.
2r	.	8G 8g	true	.	.	.	.	.	.
.	.	16A# 16a#	_	.	.	.	.	.	.
.	.	16B 16b	_	.	.	.	.	.	.
.	.	8r	.	.	.	.	.	.	.
.	.	8G 8g	hoo!	.	.	.	.	.	.
=128	=128	=128	=128	=128	=128	=128	=128	=128	=128
1r	.	4.d	Know	1CMM	.	voice	.	.	C:maj9
.	.	[8G	this	.	.	.	.	.	.
.	.	4G]	_	.	.	.	.	.	.
.	.	4r	.	.	.	.	.	.	.
=129	=129	=129	=129	=129	=129	=129	=129	=129	=129
1r	.	4.d	Much	1Bmm	.	voice	.	.	B:min7
.	.	8G	is	.	.	.	.	.	.
.	.	4r	.	.	.	.	.	.	.
.	.	8A	true	.	.	.	.	.	.
.	.	8G	_	.	.	.	.	.	.
=130	=130	=130	=130	=130	=130	=130	=130	=130	=130
1r	.	8r	.	1GM	newline	voice	.	316.521	G:maj
.	.	8D 8d	This	.	.	.	.	.	.
.	.	8D 8d	much	.	.	.	.	.	.
.	.	16E 16e	is	.	.	.	.	.	.
.	.	16D 16d	a'	.	.	.	.	.	.
.	.	8G 8g	true	.	.	.	.	.	.
.	.	16A# 16a#	_	.	.	.	.	.	.
.	.	16B 16b	_	.	.	.	.	.	.
.	.	4r	.	.	.	.	.	.	.
=131	=131	=131	=131	=131	=131	=131	=131	=131	=131
1r	.	8r	.	1Emm	.	voice	.	.	E:min9
.	.	8D 8d	This	.	.	.	.	.	.
.	.	8D 8d	much	.	.	.	.	.	.
.	.	16E 16e	is	.	.	.	.	.	.
.	.	16D 16d	a'	.	.	.	.	.	.
.	.	8G 8g	true	.	.	.	.	.	.
.	.	16A# 16a#	_	.	.	.	.	.	.
.	.	16B 16b	_	.	.	.	.	.	.
.	.	8r	.	.	.	.	.	.	.
.	.	8G 8g	hoo!	.	.	.	.	.	.
=132	=132	=132	=132	=132	=132	=132	=132	=132	=132
2r	.	4.d	know	1CMM	.	voice	.	.	C:maj9
.	.	[8G	this	.	.	.	.	.	.
4r	.	4G]	_	.	.	.	.	.	.
8r	.	4r	.	.	.	.	.	.	.
8g	I	.	.	.	.	.	.	.	.
=133	=133	=133	=133	=133	=133	=133	=133	=133	=133
8g	know,	4.d	much	1Bmm	.	voice	.	.	B:min7
8f#	I	.	.	.	.	.	.	.	.
8f#	know,	.	.	.	.	.	.	.	.
8e	I	8G	is	.	.	.	.	.	.
8e	know	4r	.	.	.	.	.	.	.
8d	this	.	.	.	.	.	.	.	.
8d	much	8A	true	.	.	.	.	.	.
8e	is	8G	_	.	.	.	.	.	.
=134	=134	=134	=134	=134	=134	=134	=134	=134	=134
8.d	true	8r	.	1GM	newline	voice	.	326.398	G:maj
.	.	8D 8d	This	.	.	.	.	.	.
16c	_	.	.	.	.	.	.	.	.
8B	_	8D 8d	much	.	.	.	.	.	.
2r	.	16E 16e	is	.	.	.	.	.	.
.	.	16D 16d	a'	.	.	.	.	.	.
.	.	8G 8g	true	.	.	.	.	.	.
.	.	16A# 16a#	_	.	.	.	.	.	.
.	.	16B 16b	_	.	.	.	.	.	.
.	.	4r	.	.	.	.	.	.	.
16e	Ha	.	.	.	.	.	.	.	.
[16f#	_	.	.	.	.	.	.	.	.
=135	=135	=135	=135	=135	=135	=135	=135	=135	=135
2f#]	_	8r	.	1Emm	.	voice	.	.	E:min9
.	.	8D 8d	This	.	.	.	.	.	.
.	.	8D 8d	much	.	.	.	.	.	.
.	.	16E 16e	is	.	.	.	.	.	.
.	.	16D 16d	a'	.	.	.	.	.	.
2r	.	8G 8g	true	.	.	.	.	.	.
.	.	16A# 16a#	_	.	.	.	.	.	.
.	.	16B 16b	_	.	.	.	.	.	.
.	.	8r	.	.	.	.	.	.	.
.	.	8G 8g	hoo!	.	.	.	.	.	.
=136	=136	=136	=136	=136	=136	=136	=136	=136	=136
1r	.	1r	.	1CMM	.	voice	.	.	C:maj9
=137	=137	=137	=137	=137	=137	=137	=137	=137	=137
1r	.	1r	.	1Bmm	.	voice	.	.	B:min7
=138	=138	=138	=138	=138	=138	=138	=138	=138	=138
1r	.	1r	.	1GM	.	voice	.	.	G:maj
r;	.	r;	.	1r;	.	r	.	337.456	N.C.
r;	.	r;	.	1r;	.	r	.	343.118	N.C.
*-	*-	*-	*-	*-	*-	*-	*-	*-	*-
!!!BillboardChartDate: 1983/08/20
!!!BillboardPeak: 4
!!!BillboardWeeksOnChart: 18
!!!COC: Spandau Ballet
!!!ENC: Nathaniel Condit-Schultz
!!!EST: Awating manual error checking and editing.
!!!OTL: True
!!!RDF**chordsym: original McGill chord annotation + (implied pitch class set, with bass pitch in first position)
!!!RDF**harmony: **recip + pitch class of root + harmonic quality
!!!RDF**leadinstrument: original McGill primary instrumentation annotation
!!!RDF**phrase: newline = linebreak in original McGill transcription
!!!RDF**timestamp: McGill audio timestamp in seconds
!!!RDT: 2017/01/12/
!!!SampleActualRank: 42
!!!SampleID#: 0091
!!!SampleTargetRank: 41
